X:17
T:Tam Lin
M:C|
R:reel
C:Davey Arthur
K:Dmin
A,D D2 A,DFD | B,D D2 FDFD | CE E2 GE E2 | (EF)FE FEDC |
A,D D2 A,DFD | B,D D2 FDFD | CE E2 GE E2 |[1 FEDC D2 DC :|[2 FEDC DFA^c |]
|: (^cd)dA FD D2 | (^cd)dA FD D2 | c2 Gc c2 Gc | c2 Gc cdec |
(^cd)dA FD D2 | (^cd)dA FD D2 | B,D D2 CE E2 |[1 FEDC DFA^c :|[2 FEDC D2 |]

